src/data/icons/add-bet.svg

<?xml version="1.0" encoding="UTF-8"?>
<svg width="41px" height="35px" viewBox="0 0 41 35" version="1.1" xmlns="http://www.w3.org/2000/svg" xmlns:xlink="http://www.w3.org/1999/xlink">
    <title>Group 19</title>
    <g id="🌎-00-Mobile-Menu" stroke="none" stroke-width="1" fill="none" fill-rule="evenodd">
        <g id="wallfair-home-mobile-menu-01" transform="translate(-164.000000, -740.000000)">
            <g id="Group-10-Copy-2" transform="translate(133.000000, 733.000000)">
                <g id="Group" transform="translate(31.000000, 9.000000)">
                    <g id="Group-37" transform="translate(20.011364, 18.411255) rotate(-14.000000) translate(-20.011364, -18.411255) translate(3.064882, 3.661597)">
                        <g id="Group-19" transform="translate(0.967688, 0.000000)">
                            <ellipse id="Oval" fill="#0E0927" fill-rule="nonzero" cx="14.5" cy="18.8790412" rx="1" ry="1"></ellipse>
                            <ellipse id="Oval" fill="#0E0927" fill-rule="nonzero" cx="14.5" cy="15.1754049" rx="1" ry="1"></ellipse>
                            <ellipse id="Oval" fill="#0E0927" fill-rule="nonzero" cx="14.5" cy="11.3572231" rx="1" ry="1"></ellipse>
                            <path d="M16.5010022,6.52734234 L2.35866667,6.52722306 C2.12376155,6.52722306 1.93333333,6.71526346 1.93333333,6.94722306 L1.93333333,10.431314 C4.22091018,10.8532318 5.87923982,12.8249471 5.87923982,15.1229049 C5.87923982,17.4208627 4.22091018,19.392578 1.93333333,19.8144958 L1.93333333,23.2985867 C1.93333333,23.5305463 2.12376155,23.7185867 2.35866667,23.7185867 L26.6413333,23.7185867 C26.8762384,23.7185867 27.0666667,23.5305463 27.0666667,23.2985867 L27.0666667,19.8144958 C24.9669882,19.4272337 23.3974313,17.7343144 23.1537549,15.6818766 C23.4560534,15.7891652 23.7647264,15.8821674 24.0806922,15.9609466 C24.4974281,16.0648505 24.9145781,16.1409525 25.330186,16.190428 C25.6953974,17.1176251 26.5392515,17.8210494 27.5886667,17.9817685 C28.3961777,18.1117366 28.9918477,18.7966279 29,19.6044958 L29,23.2890412 C29,24.5753626 27.943989,25.6181321 26.6413333,25.6181321 L2.35866667,25.6181321 C1.05601104,25.6181321 1.13686838e-13,24.5753626 1.13686838e-13,23.2890412 L1.13686838e-13,19.6044958 C0.00893988482,18.7935551 0.609653229,18.1075636 1.421,17.9817685 C2.8431158,17.7591243 3.88442958,16.5398478 3.86666667,15.1181321 C3.88371535,13.6933137 2.83729672,12.4728837 1.41133333,12.2544958 C0.601746228,12.1281913 0.00417124343,11.4411096 1.13686838e-13,10.6317685 L1.13686838e-13,6.94722306 C1.13686838e-13,5.66090167 1.05601104,4.61813215 2.35866667,4.61813215 L16.6347624,4.61815543 C16.5275493,5.25883042 16.4843888,5.89759968 16.5010022,6.52734234 Z" id="Combined-Shape" fill="#0E0927" fill-rule="nonzero"></path>
                            <path d="M26.2580781,6.66719692 L26.2580781,1.16719692 M26.2580781,6.66719692 L26.2580781,12.1671969 M26.2580781,6.66719692 L31.7580781,6.66719692 M26.2580781,6.66719692 L20.7580781,6.66719692" id="Shape" stroke="#0E0927" stroke-width="1.76" stroke-linecap="round" stroke-linejoin="round" transform="translate(26.258078, 6.667197) rotate(14.000000) translate(-26.258078, -6.667197) "></path>
                        </g>
                    </g>
                </g>
            </g>
        </g>
    </g>
</svg>

<svg width="41" height="35" xmlns="http://www.w3.org/2000/svg"><g transform="rotate(-14 41.05 1.16)" fill="none" fill-rule="evenodd"><circle fill="#0E0927" fill-rule="nonzero" cx="14.5" cy="18.879" r="1"/><circle fill="#0E0927" fill-rule="nonzero" cx="14.5" cy="15.175" r="1"/><circle fill="#0E0927" fill-rule="nonzero" cx="14.5" cy="11.357" r="1"/><path d="M16.501 6.527H2.359a.423.423 0 00-.426.42v3.484c2.288.422 3.946 2.394 3.946 4.692s-1.658 4.27-3.946 4.691V23.3c0 .232.19.42.426.42H26.64a.423.423 0 00.426-.42v-3.485c-2.1-.387-3.67-2.08-3.913-4.132a10.005 10.005 0 002.176.508 2.892 2.892 0 002.259 1.792c.807.13 1.403.815 1.411 1.622v3.685c0 1.286-1.056 2.33-2.359 2.33H2.36C1.056 25.618 0 24.574 0 23.288v-3.685c.009-.81.61-1.496 1.421-1.622 1.422-.223 2.463-1.442 2.446-2.864.017-1.425-1.03-2.645-2.456-2.864A1.658 1.658 0 010 10.632V6.947c0-1.286 1.056-2.329 2.359-2.329h14.276c-.107.64-.15 1.28-.134 1.91z" fill="#0E0927" fill-rule="nonzero"/><path d="M26.258 6.667l1.33-5.336m-1.33 5.336l-1.33 5.337m1.33-5.337l5.337 1.33m-5.337-1.33l-5.337-1.33" stroke="#0E0927" stroke-width="1.76" stroke-linecap="round" stroke-linejoin="round"/></g></svg>
